src/asset/google_auth.svg

<svg width="24" height="24" viewBox="0 0 24 24" fill="none" xmlns="http://www.w3.org/2000/svg">
<g clip-path="url(#clip0)">
<path d="M12.0005 24.001C18.6282 24.001 24.001 18.6282 24.001 12.0005C24.001 5.3728 18.6282 0 12.0005 0C5.3728 0 0 5.3728 0 12.0005C0 18.6282 5.3728 24.001 12.0005 24.001Z" fill="#616161"/>
<path d="M12.0005 19.6369C7.78243 19.6369 4.36408 16.2185 4.36408 12.0005C4.36408 7.78242 7.78243 4.36408 12.0005 4.36408C14.1085 4.36408 16.0174 5.2189 17.4002 6.60075L20.4859 3.51505C18.314 1.34316 15.3134 0 12.0005 0C5.37266 0 0 5.37266 0 12.0005C0 18.6283 5.37266 24.001 12.0005 24.001C15.3144 24.001 18.314 22.6578 20.4869 20.4869L17.4012 17.4012C16.0174 18.7821 14.1085 19.6369 12.0005 19.6369Z" fill="#9E9E9E"/>
<path d="M19.6367 12.0006H15.818C15.818 9.89251 14.1084 8.18188 11.9994 8.18188C9.89033 8.18188 8.18164 9.89154 8.18164 12.0006C8.18164 13.0275 8.58778 13.9587 9.24824 14.6463L9.24534 14.6492L13.973 19.3769L13.974 19.3778C17.2347 18.5075 19.6367 15.535 19.6367 12.0006Z" fill="#424242"/>
<path d="M23.9995 12.0005H19.6354C19.6354 15.5349 17.2324 18.5074 13.9736 19.3777L17.3436 22.7477C21.289 20.7818 23.9995 16.7078 23.9995 12.0005Z" fill="#616161"/>
<path d="M12.0005 23.8637C5.39587 23.8637 0.03868 18.5278 0.000967005 11.9319C0.000967005 11.9551 0 11.9773 0 12.0005C0 18.6284 5.37266 24.001 12.0005 24.001C18.6283 24.001 24.001 18.6284 24.001 12.0005C24.001 11.9773 24 11.9551 24 11.9319C23.9623 18.5278 18.6041 23.8637 12.0005 23.8637Z" fill="#212121" fill-opacity="0.1"/>
<path d="M13.9756 19.3777L14.082 19.4841C17.2866 18.579 19.6374 15.6335 19.6374 12.1368V12.0005C19.6374 15.5349 17.2344 18.5074 13.9756 19.3777Z" fill="white" fill-opacity="0.05"/>
<path d="M21.8189 10.9092H12C11.3975 10.9092 10.9092 11.3975 10.9092 12C10.9092 12.6024 11.3975 13.0907 12 13.0907H21.8179C22.4204 13.0907 22.9087 12.6024 22.9087 12C22.9097 11.3975 22.4213 10.9092 21.8189 10.9092Z" fill="#9E9E9E"/>
<path opacity="0.5" d="M21.8189 10.9092H12C11.3975 10.9092 10.9092 11.3975 10.9092 12C10.9092 12.6024 11.3975 13.0907 12 13.0907H21.8179C22.4204 13.0907 22.9087 12.6024 22.9087 12C22.9097 11.3975 22.4213 10.9092 21.8189 10.9092Z" fill="#BDBDBD"/>
<path d="M2.18136 12.8185C2.63318 12.8185 2.99945 12.4523 2.99945 12.0005C2.99945 11.5486 2.63318 11.1824 2.18136 11.1824C1.72955 11.1824 1.36328 11.5486 1.36328 12.0005C1.36328 12.4523 1.72955 12.8185 2.18136 12.8185Z" fill="#BDBDBD"/>
<path d="M12.0007 2.99969C12.4525 2.99969 12.8188 2.63342 12.8188 2.18161C12.8188 1.72979 12.4525 1.36353 12.0007 1.36353C11.5489 1.36353 11.1826 1.72979 11.1826 2.18161C11.1826 2.63342 11.5489 2.99969 12.0007 2.99969Z" fill="#BDBDBD"/>
<path d="M12.0007 22.6367C12.4525 22.6367 12.8188 22.2704 12.8188 21.8186C12.8188 21.3668 12.4525 21.0005 12.0007 21.0005C11.5489 21.0005 11.1826 21.3668 11.1826 21.8186C11.1826 22.2704 11.5489 22.6367 12.0007 22.6367Z" fill="#BDBDBD"/>
<path d="M5.04562 5.87567C5.49744 5.87567 5.86371 5.5094 5.86371 5.05758C5.86371 4.60577 5.49744 4.2395 5.04562 4.2395C4.59381 4.2395 4.22754 4.60577 4.22754 5.05758C4.22754 5.5094 4.59381 5.87567 5.04562 5.87567Z" fill="#BDBDBD"/>
<path d="M5.04562 19.7734C5.49744 19.7734 5.86371 19.4071 5.86371 18.9553C5.86371 18.5035 5.49744 18.1372 5.04562 18.1372C4.59381 18.1372 4.22754 18.5035 4.22754 18.9553C4.22754 19.4071 4.59381 19.7734 5.04562 19.7734Z" fill="#BDBDBD"/>
<path d="M18.9548 19.7731C19.4066 19.7731 19.7729 19.4069 19.7729 18.955C19.7729 18.5032 19.4066 18.137 18.9548 18.137C18.503 18.137 18.1367 18.5032 18.1367 18.955C18.1367 19.4069 18.503 19.7731 18.9548 19.7731Z" fill="#757575"/>
<path d="M12.0009 11.046H21.8189C22.3981 11.046 22.872 11.4986 22.9058 12.0691C22.9068 12.0459 22.9097 12.0237 22.9097 12.0004C22.9097 11.398 22.4213 10.9097 21.8189 10.9097H12.0009C11.3985 10.9097 10.9102 11.398 10.9102 12.0004C10.9102 12.0237 10.9111 12.0459 10.914 12.0691C10.9479 11.4986 11.4207 11.046 12.0009 11.046Z" fill="white" fill-opacity="0.2"/>
<path d="M22.9058 12.0681C22.87 12.6377 22.3972 13.0912 21.8189 13.0912H12.0009C11.4217 13.0912 10.9479 12.6386 10.914 12.0681C10.9111 12.0913 10.9102 12.1136 10.9102 12.1358C10.9102 12.7382 11.3985 13.2266 12.0009 13.2266H21.8189C22.4213 13.2266 22.9097 12.7382 22.9097 12.1358C22.9097 12.1136 22.9087 12.0913 22.9058 12.0681Z" fill="#212121" fill-opacity="0.2"/>
<path d="M12.0007 4.5005C14.1087 4.5005 16.0176 5.35533 17.4004 6.73717L20.5528 3.58282C20.5296 3.55961 20.5074 3.5364 20.4851 3.51416L17.4004 6.59986C16.0176 5.21802 14.1087 4.36319 12.0007 4.36319C7.78261 4.36319 4.36426 7.78153 4.36426 11.9996C4.36426 12.0228 4.36522 12.045 4.36522 12.0682C4.40197 7.8821 7.80581 4.5005 12.0007 4.5005Z" fill="#212121" fill-opacity="0.1"/>
<path d="M12.0005 24.001C18.6282 24.001 24.001 18.6282 24.001 12.0005C24.001 5.3728 18.6282 0 12.0005 0C5.3728 0 0 5.3728 0 12.0005C0 18.6282 5.3728 24.001 12.0005 24.001Z" fill="url(#paint0_radial)"/>
</g>
<defs>
<radialGradient id="paint0_radial" cx="0" cy="0" r="1" gradientUnits="userSpaceOnUse" gradientTransform="translate(3.51922 3.49189) scale(23.9595)">
<stop stop-color="white" stop-opacity="0.1"/>
<stop offset="1" stop-color="white" stop-opacity="0"/>
</radialGradient>
<clipPath id="clip0">
<rect width="24" height="24" fill="white"/>
</clipPath>
</defs>
</svg>

<svg width="24" height="24" fill="none" xmlns="http://www.w3.org/2000/svg"><g clip-path="url(#clip0)"><path d="M12 24.001c6.628 0 12.001-5.373 12.001-12 0-6.628-5.373-12.001-12-12.001C5.373 0 0 5.373 0 12c0 6.628 5.373 12.001 12 12.001z" fill="#616161"/><path d="M12 19.637A7.636 7.636 0 014.365 12 7.636 7.636 0 0117.4 6.6l3.086-3.086A11.964 11.964 0 0012 0C5.374 0 0 5.373 0 12c0 6.628 5.373 12.001 12 12.001a11.97 11.97 0 008.487-3.514L17.4 17.4a7.623 7.623 0 01-5.4 2.236z" fill="#9E9E9E"/><path d="M19.637 12h-3.819a3.82 3.82 0 00-7.636 0c0 1.027.406 1.959 1.066 2.646l-.003.003 4.728 4.728h.001a7.639 7.639 0 005.663-7.376z" fill="#424242"/><path d="M24 12h-4.365a7.64 7.64 0 01-5.661 7.378l3.37 3.37A12 12 0 0023.999 12z" fill="#616161"/><path d="M12 23.864C5.397 23.864.04 18.528.002 11.932L0 12c0 6.627 5.373 12 12 12 6.628 0 12.001-5.373 12.001-12L24 11.93c-.038 6.597-5.396 11.933-12 11.933z" fill="#212121" fill-opacity=".1"/><path d="M13.976 19.378l.106.106a7.638 7.638 0 005.555-7.347V12a7.64 7.64 0 01-5.661 7.377z" fill="#fff" fill-opacity=".05"/><path d="M21.819 10.91H12a1.09 1.09 0 100 2.18h9.818a1.09 1.09 0 000-2.18z" fill="#9E9E9E"/><path opacity=".5" d="M21.819 10.91H12a1.09 1.09 0 100 2.18h9.818a1.09 1.09 0 000-2.18z" fill="#BDBDBD"/><path d="M2.181 12.819a.818.818 0 100-1.637.818.818 0 000 1.636zM12 3a.818.818 0 100-1.637A.818.818 0 0012 3zM12 22.637A.818.818 0 1012 21a.818.818 0 000 1.637zM5.046 5.876a.818.818 0 100-1.637.818.818 0 000 1.637zM5.046 19.773a.818.818 0 100-1.636.818.818 0 000 1.636z" fill="#BDBDBD"/><path d="M18.955 19.773a.818.818 0 100-1.636.818.818 0 000 1.636z" fill="#757575"/><path d="M12 11.046h9.819c.58 0 1.053.453 1.087 1.023 0-.023.004-.045.004-.069a1.09 1.09 0 00-1.091-1.09H12a1.09 1.09 0 00-1.087 1.16 1.088 1.088 0 011.087-1.024z" fill="#fff" fill-opacity=".2"/><path d="M22.906 12.068a1.092 1.092 0 01-1.087 1.023H12a1.09 1.09 0 01-1.087-1.023 1.09 1.09 0 001.087 1.159h9.818a1.09 1.09 0 001.087-1.159z" fill="#212121" fill-opacity=".2"/><path d="M12 4.5c2.109 0 4.018.855 5.4 2.237l3.153-3.154-.068-.069L17.4 6.6A7.636 7.636 0 004.364 12l.001.068a7.635 7.635 0 017.636-7.567z" fill="#212121" fill-opacity=".1"/><path d="M12 24.001c6.628 0 12.001-5.373 12.001-12 0-6.628-5.373-12.001-12-12.001C5.373 0 0 5.373 0 12c0 6.628 5.373 12.001 12 12.001z" fill="url(#paint0_radial)"/></g><defs><radialGradient id="paint0_radial" cx="0" cy="0" r="1" gradientUnits="userSpaceOnUse" gradientTransform="translate(3.52 3.492) scale(23.9595)"><stop stop-color="#fff" stop-opacity=".1"/><stop offset="1" stop-color="#fff" stop-opacity="0"/></radialGradient><clipPath id="clip0"><path fill="#fff" d="M0 0h24v24H0z"/></clipPath></defs></svg>
